tools/download-figma-icons/icons/solid/euro.svg

<svg width="24" height="24" viewBox="0 0 24 24" fill="none" xmlns="http://www.w3.org/2000/svg">
<path fill-rule="evenodd" clip-rule="evenodd" d="M13.763 9.87909C14.183 9.87909 14.513 10.2091 14.513 10.6291C14.513 11.0416 14.183 11.379 13.763 11.379H8.70067C8.64067 11.784 8.64067 12.189 8.70067 12.594H13.763C14.183 12.594 14.513 12.9315 14.513 13.344C14.513 13.7565 14.183 14.094 13.763 14.094H9.23315C9.4049 14.3789 9.59989 14.6564 9.84063 14.9039C10.9431 15.9989 12.5481 16.3889 14.0323 15.9089C14.3855 15.7964 14.7305 15.6239 15.0597 15.3989C15.4047 15.1664 15.8705 15.2564 16.1022 15.6014C16.3354 15.9389 16.2454 16.4114 15.9004 16.6364C15.4505 16.9439 14.9772 17.1764 14.4972 17.3339C13.9205 17.5214 13.3355 17.6113 12.7498 17.6113C11.2873 17.6113 9.85563 17.0339 8.78242 15.9614C8.23568 15.4139 7.8232 14.7764 7.5457 14.094H5.88825C5.47502 14.094 5.13828 13.7565 5.13828 13.344C5.13828 12.9315 5.47502 12.594 5.88825 12.594H7.17821C7.13322 12.189 7.13322 11.784 7.17821 11.379H5.88825C5.47502 11.379 5.13828 11.0416 5.13828 10.6291C5.13828 10.2091 5.47502 9.87909 5.88825 9.87909H7.5457C7.8232 9.19661 8.23568 8.55913 8.78242 8.01164C10.6806 6.1142 13.673 5.82171 15.9004 7.32166C16.2454 7.55416 16.3354 8.01914 16.1022 8.36413C15.8705 8.70912 15.4047 8.79912 15.0597 8.56663C13.433 7.46416 11.2356 7.67415 9.84063 9.06911C9.59989 9.3166 9.4049 9.59409 9.23315 9.87909H13.763ZM23.9993 11.9865C23.9993 11.6715 23.8718 11.364 23.6325 11.154L21.6976 9.38409L22.4926 6.88666C22.5901 6.58667 22.5526 6.25668 22.3951 5.98669C22.2376 5.7092 21.9668 5.51421 21.6593 5.44671L19.0944 4.89173L18.5394 2.3268C18.4719 2.01931 18.2777 1.74932 17.9995 1.59183C17.7302 1.43433 17.4002 1.39683 17.0995 1.49433L14.6021 2.28931L12.8329 0.354364C12.4121 -0.118121 11.5946 -0.118121 11.1679 0.354364L9.40471 2.28931L6.90729 1.49433C6.60805 1.39683 6.27806 1.43433 6.00807 1.59183C5.73057 1.74932 5.53483 2.01931 5.46733 2.3268L4.90485 4.89173L2.34743 5.44671C2.03994 5.51421 1.7707 5.7092 1.6132 5.97919C1.45571 6.25668 1.41821 6.58667 1.5157 6.88666L2.30993 9.38409L0.368239 11.154C0.135746 11.364 0 11.6715 0 11.9865C0 12.3015 0.135746 12.6015 0.368239 12.819L2.30993 14.5814L1.5157 17.0789C1.41821 17.3788 1.45571 17.7088 1.6132 17.9863C1.7707 18.2563 2.03994 18.4513 2.34743 18.5188L4.90485 19.0813L5.46733 21.6387C5.53483 21.9462 5.73058 22.2162 5.99982 22.3737C6.27806 22.5312 6.60805 22.5687 6.90729 22.4712L9.40471 21.6762L11.1679 23.6187C11.3854 23.8511 11.6846 23.9861 11.9996 23.9861C12.3229 23.9861 12.6221 23.8511 12.8329 23.6187L14.6021 21.6762L17.0995 22.4712C17.407 22.5687 17.7302 22.5312 18.0077 22.3737C18.2777 22.2162 18.4719 21.9462 18.5394 21.6387L19.0944 19.0813L21.6593 18.5188C21.9668 18.4513 22.2376 18.2563 22.3951 17.9863C22.5526 17.7088 22.5901 17.3788 22.4926 17.0789L21.6976 14.5814L23.6325 12.819C23.8718 12.6015 23.9993 12.3015 23.9993 11.9865Z" fill="black"/>
</svg>

<svg xmlns="http://www.w3.org/2000/svg" width="24" height="24" fill="none" viewBox="0 0 24 24"><path fill="currentColor" fill-rule="evenodd" d="M13.763 9.88c.42 0 .75.33.75.75 0 .412-.33.749-.75.749H8.701q-.09.607 0 1.215h5.062c.42 0 .75.338.75.75 0 .413-.33.75-.75.75h-4.53c.172.285.367.562.608.81a4.13 4.13 0 0 0 4.191 1.005 4 4 0 0 0 1.028-.51.75.75 0 0 1 .84 1.237 5.6 5.6 0 0 1-1.403.698 5.61 5.61 0 0 1-5.715-1.373 5.65 5.65 0 0 1-1.236-1.867H5.888a.75.75 0 0 1-.75-.75c0-.412.337-.75.75-.75h1.29a5.5 5.5 0 0 1 0-1.215h-1.29a.75.75 0 0 1-.75-.75c0-.42.337-.75.75-.75h1.658c.277-.682.69-1.32 1.236-1.867a5.634 5.634 0 0 1 7.118-.69.75.75 0 0 1 .202 1.042.75.75 0 0 1-1.042.203 4.124 4.124 0 0 0-5.22.502c-.24.248-.435.525-.607.81zm10.236 2.106c0-.315-.127-.622-.366-.832l-1.935-1.77.795-2.497c.097-.3.06-.63-.098-.9a1.12 1.12 0 0 0-.736-.54l-2.565-.555-.555-2.565a1.12 1.12 0 0 0-.54-.735 1.1 1.1 0 0 0-.9-.098l-2.497.795-1.77-1.935c-.42-.472-1.237-.472-1.664 0L9.405 2.29l-2.498-.795a1.1 1.1 0 0 0-.899.098 1.12 1.12 0 0 0-.54.735l-.563 2.565-2.558.555a1.14 1.14 0 0 0-.734.532 1.13 1.13 0 0 0-.097.908l.794 2.497-1.942 1.77a1.13 1.13 0 0 0-.368.832c0 .316.136.615.368.833l1.942 1.762-.794 2.498c-.098.3-.06.63.097.907.158.27.427.465.734.533l2.558.562.562 2.558c.068.307.264.577.533.735.278.157.608.195.907.097l2.498-.795 1.763 1.943c.217.232.517.367.832.367.323 0 .622-.135.833-.367l1.77-1.943 2.496.795c.308.098.631.06.909-.097.27-.158.464-.428.531-.735l.555-2.558 2.565-.562c.308-.068.579-.263.736-.533.158-.277.195-.607.098-.907l-.795-2.498 1.935-1.762c.239-.218.366-.518.366-.833" clip-rule="evenodd"/></svg>
